X: 1
T: The Braes of Dunvegan
R: strathspey
S: handwritten MS
Z: 2006 John Chambers <jc:trillian.mit.edu>
M: C
L: 1/8
K: D
    F<G | A>B A<F A2    d>e  | f>d g<e f2 e<d | B>c d>B A>F D>F | E>D E<F E2 F<G |
        | A>B A<F A2    d>e  | f>d g<e f2 e<d | B>c d>B A>F G<E | F2 D2 D2 :|
|:  f>g | a>g f>e f<a (3AB=c | B>A d>e f2 e<d | B>c d>B A>F D>F | E>D E<F E2 |
|[1 f>g | a>g f>e f<a (3AB=c | B>A d<e f2 e<d | B>c d>B A>F G<E | F2 D2 D2 :|
|[2 F>G | A>B A>F A2     d>e | f<d g<e f2 e<d | B>c d>B A>F G<E | F2 D2 D2 |]
